static/Icons/building-3.svg

<svg fill="none" height="24" viewBox="0 0 24 24" width="24" xmlns="http://www.w3.org/2000/svg"><g fill="#292d32"><path d="m15.01 14.7499v7.2399l-11.99999.0201v-7.26l-.01001-1.5v-6.18004c0-.67.34001-1.29003.89001-1.66003l4-2.66999c.67-.45 1.54998-.45 2.21999 0l4 2.66999c.56.37.89.99003.89 1.66003v6.18004z" opacity=".4"/><path d="m22 21.2511h-1.27v-3c.95-.31 1.64-1.2 1.64-2.25v-2c0-1.31-1.07-2.38-2.38-2.38s-2.38 1.07-2.38 2.38v2c0 1.04.68 1.92 1.61 2.24v3.01h-17.22c-.41 0-.75.34-.75.75s.34.75.75.75h17.93c.02 0 .03.01.05.01s.03-.01.05-.01h1.97c.41 0 .75-.34.75-.75s-.34-.75-.75-.75z"/><path d="m15.01 14.75h-11.99999l-.01001-1.5h12z"/><path d="m9 22.75c-.41 0-.75-.34-.75-.75v-3.75c0-.41.34-.75.75-.75s.75.34.75.75v3.75c0 .41-.34.75-.75.75z"/><path d="m9 10.75c.9665 0 1.75-.7835 1.75-1.75s-.7835-1.75-1.75-1.75-1.75.7835-1.75 1.75.7835 1.75 1.75 1.75z"/></g></svg>

<svg width="24" height="24" viewBox="0 0 24 24" fill="none" xmlns="http://www.w3.org/2000/svg">
<path opacity="0.4" d="M15.01 14.7499V21.9898L3.01001 22.0099V14.7499L3 13.2499V7.06986C3 6.39986 3.34001 5.77983 3.89001 5.40983L7.89001 2.73984C8.56001 2.28984 9.43999 2.28984 10.11 2.73984L14.11 5.40983C14.67 5.77983 15 6.39986 15 7.06986V13.2499L15.01 14.7499Z" fill="#292D32"/>
<path d="M22 21.2511H20.73V18.2511C21.68 17.9411 22.37 17.0511 22.37 16.0011V14.0011C22.37 12.6911 21.3 11.6211 19.99 11.6211C18.68 11.6211 17.61 12.6911 17.61 14.0011V16.0011C17.61 17.0411 18.29 17.9211 19.22 18.2411V21.2511H2C1.59 21.2511 1.25 21.5911 1.25 22.0011C1.25 22.4111 1.59 22.7511 2 22.7511H19.93C19.95 22.7511 19.96 22.7611 19.98 22.7611C20 22.7611 20.01 22.7511 20.03 22.7511H22C22.41 22.7511 22.75 22.4111 22.75 22.0011C22.75 21.5911 22.41 21.2511 22 21.2511Z" fill="#292D32"/>
<path d="M15.01 14.75H3.01001L3 13.25H15L15.01 14.75Z" fill="#292D32"/>
<path d="M9 22.75C8.59 22.75 8.25 22.41 8.25 22V18.25C8.25 17.84 8.59 17.5 9 17.5C9.41 17.5 9.75 17.84 9.75 18.25V22C9.75 22.41 9.41 22.75 9 22.75Z" fill="#292D32"/>
<path d="M9 10.75C9.9665 10.75 10.75 9.9665 10.75 9C10.75 8.0335 9.9665 7.25 9 7.25C8.0335 7.25 7.25 8.0335 7.25 9C7.25 9.9665 8.0335 10.75 9 10.75Z" fill="#292D32"/>
</svg>
